X:6271
T:Start Again
R:march
C:Paul S. Cranford & Gordon MacLean
D:The Lighthouse, Cranford Publications
B:The Lighthouse Collection, ISBN 0-9691181-5-5
N:Contacts ...
N:..... Cranford Publications <http://www.cranfordpub.com>
O:England
L:1/8
Q:244
M:C|
K:G
(3(DEF)|G2 g<e d2 B<A|G>AB<G E2 B<A|G2 g<a g>fe<d|B2 e2 e2 (3(DEF)|
G2 g<e d2 B<A|G>AB<G E2 B<A|G2 g>e d>BA<G|B2 G2 G2:|
|:(3(Bcd)|e>de<f g2 f<e|d>ed<B G2 Bd|e2 ef g2 ba|[1g2 e2 e2 gf|
e>dB<d g2 Bc|d>ede d>BA>G|B2 G2 G2:|
[2g2 e2 e2 (3(def)|g>fe<d g2 Bc|d>ede d>BA>G|B2 G2 G2|]
